src/pos-icons/view-grid-outline.svg

<svg height="24" viewBox="0 0 24 24" width="24" xmlns="http://www.w3.org/2000/svg"><path d="m3 11h8v-8h-8m2 2h4v4h-4m8 12h8v-8h-8m2 2h4v4h-4m-12 2h8v-8h-8m2 2h4v4h-4m8-16v8h8v-8m-2 6h-4v-4h4z"/></svg>

<?xml version="1.0" encoding="UTF-8"?><!DOCTYPE svg PUBLIC "-//W3C//DTD SVG 1.1//EN" "http://www.w3.org/Graphics/SVG/1.1/DTD/svg11.dtd"><svg xmlns="http://www.w3.org/2000/svg" xmlns:xlink="http://www.w3.org/1999/xlink" version="1.1" id="mdi-view-grid-outline" width="24" height="24" viewBox="0 0 24 24"><path d="M3 11H11V3H3M5 5H9V9H5M13 21H21V13H13M15 15H19V19H15M3 21H11V13H3M5 15H9V19H5M13 3V11H21V3M19 9H15V5H19Z" /></svg>
